icons/seeding.svg

<svg width="24" height="24" viewBox="0 0 24 24" fill="none" xmlns="http://www.w3.org/2000/svg">
<path fill-rule="evenodd" clip-rule="evenodd" d="M1 3C1 2.44772 1.44772 2 2 2H5.33333C7.35258 2 9.29764 2.76663 10.7385 4.14445C12.0132 5.36342 12.8012 6.97385 12.9671 8.6921C13.0621 8.59051 13.1603 8.49125 13.2615 8.39445C14.7024 7.01663 16.6474 6.25 18.6667 6.25H22C22.5523 6.25 23 6.69772 23 7.25V8.3125C23 10.2833 22.1809 12.1638 20.7385 13.543C19.2976 14.9209 17.3526 15.6875 15.3333 15.6875H13V21C13 21.5523 12.5523 22 12 22C11.4477 22 11 21.5523 11 21V12.5H8.66667C6.64742 12.5 4.70236 11.7334 3.2615 10.3555C1.81912 8.97627 1 7.09577 1 5.125V3ZM11 10.5H8.66667C7.1497 10.5 5.70337 9.92333 4.64374 8.91007C3.58564 7.89825 3 6.53574 3 5.125V4H5.33333C6.8503 4 8.29663 4.57667 9.35626 5.58993C10.4144 6.60175 11 7.96426 11 9.375V10.5ZM13 13.625V13.6875H15.3333C16.8503 13.6875 18.2966 13.1108 19.3563 12.0976C20.4144 11.0858 21 9.72324 21 8.3125V8.25H18.6667C17.1497 8.25 15.7034 8.82667 14.6437 9.83993C13.5856 10.8517 13 12.2143 13 13.625Z" fill="black"/>
</svg>

<svg
  width="24"
  height="24"
  viewBox="0 0 24 24"
  xmlns="http://www.w3.org/2000/svg"
>
  <path
    fill-rule="evenodd"
    clip-rule="evenodd"
    d="M1 3a1 1 0 0 1 1-1h3.333c2.02 0 3.965.767 5.405 2.144a7.262 7.262 0 0 1 2.23 4.548c.094-.101.192-.2.293-.298a7.825 7.825 0 0 1 5.406-2.144H22a1 1 0 0 1 1 1v1.063c0 1.97-.82 3.85-2.262 5.23a7.824 7.824 0 0 1-5.405 2.145H13V21a1 1 0 1 1-2 0v-8.5H8.667a7.824 7.824 0 0 1-5.405-2.145C1.818 8.976 1 7.095 1 5.125V3zm10 7.5H8.667a5.825 5.825 0 0 1-4.023-1.59C3.586 7.898 3 6.536 3 5.125V4h2.333c1.517 0 2.964.577 4.023 1.59C10.414 6.602 11 7.964 11 9.375V10.5zm2 3.125v.063h2.333a5.825 5.825 0 0 0 4.023-1.59C20.414 11.086 21 9.723 21 8.312V8.25h-2.333a5.825 5.825 0 0 0-4.023 1.59C13.586 10.852 13 12.214 13 13.625z"
  />
</svg>
